src/icons/share.svg

<svg width="20" height="20" viewBox="0 0 20 20" fill="none" xmlns="http://www.w3.org/2000/svg">
<path d="M10.6653 16.8209C11.0883 16.8209 11.419 16.6594 11.8266 16.2748L17.918 10.5603C18.218 10.2757 18.3333 9.94501 18.3333 9.66044C18.3333 9.36817 18.218 9.04515 17.918 8.76058L11.8266 3.08453C11.3806 2.6692 11.0883 2.5 10.6807 2.5C10.0654 2.5 9.62699 2.97685 9.62699 3.57676V6.3148H9.43471C4.12783 6.3148 1.66667 9.72197 1.66667 15.3057C1.66667 16.2825 2.08199 16.7901 2.62037 16.7901C3.028 16.7901 3.40487 16.6594 3.70482 16.0979C4.91233 13.8521 6.62745 13.0291 9.43471 13.0291H9.62699L9.62699 15.7826C9.62699 16.3825 10.0654 16.8209 10.6653 16.8209ZM11.1575 14.8366C11.0883 14.8366 11.0422 14.7904 11.0422 14.7135V11.8755C11.0422 11.6986 10.9652 11.6217 10.7883 11.6217H9.80388C6.28135 11.6217 4.03554 12.7369 3.1126 14.6597C3.08953 14.7058 3.06646 14.7289 3.03569 14.7289C3.00493 14.7289 2.98185 14.7058 2.98185 14.652C3.10491 10.9833 4.8508 7.71458 9.80388 7.71458H10.7883C10.9652 7.71458 11.0422 7.63767 11.0422 7.46078V4.55353C11.0422 4.48431 11.0883 4.43816 11.1575 4.43816C11.2037 4.43816 11.2498 4.46124 11.2883 4.49969L16.5413 9.51431C16.5951 9.57583 16.6182 9.61429 16.6182 9.66044C16.6182 9.70658 16.6028 9.74504 16.5413 9.80657L11.2806 14.775C11.2421 14.8135 11.196 14.8366 11.1575 14.8366Z" fill="white"/>
</svg>

<svg width="20" height="20" fill="none" xmlns="http://www.w3.org/2000/svg"><path d="M10.665 16.82c.423 0 .754-.16 1.162-.545l6.091-5.715c.3-.284.415-.615.415-.9 0-.292-.115-.615-.415-.9l-6.091-5.675c-.446-.416-.739-.585-1.146-.585-.616 0-1.054.477-1.054 1.077v2.738h-.192c-5.307 0-7.768 3.407-7.768 8.99 0 .977.415 1.485.953 1.485.408 0 .785-.13 1.085-.692 1.207-2.246 2.922-3.069 5.73-3.069h.192v2.754c0 .6.438 1.038 1.038 1.038zm.493-1.983c-.07 0-.116-.047-.116-.123v-2.838c0-.177-.077-.254-.254-.254h-.984c-3.523 0-5.768 1.115-6.691 3.038-.023.046-.047.069-.077.069-.031 0-.054-.023-.054-.077.123-3.669 1.869-6.937 6.822-6.937h.984c.177 0 .254-.077.254-.254V4.554c0-.07.046-.116.116-.116a.19.19 0 0 1 .13.062l5.253 5.014c.054.062.077.1.077.146 0 .047-.015.085-.077.147l-5.26 4.968c-.039.038-.085.062-.123.062z" fill="#fff"/></svg>
